**harm	**harte	**kern	**silbe	**kern	**silbe	**rhyme	**timestamp	**phrase	**leadinstrument
*M4/4	*M4/4	*ICvox	*	*ICvox	*	*	*	*	*
*	*	*VRlead	*	*VRharmonize	*	*	*	*	*
*	*	*Hstimme	*	*Nstimme	*	*	*	*	*
*F:	*F:	*F:	*	*F:	*	*	*	*	*
*	*	*M4/4	*	*M4/4	*	*	*	*	*
*	*	*clefC3	*	*clefG2	*	*	*	*	*
1r;	N	r;	.	r;	.	.	0	.	r
=1	=1	=1	=1	=1	=1	=1	=1	=1	=1
*>Letter>A	*>Letter>A	*>Letter>A	*>Letter>A	*>Letter>A	*>Letter>A	*>Letter>A	*>Letter>A	*>Letter>A	*>Letter>A
*>Label>Intro	*>Label>Intro	*>Label>Intro	*>Label>Intro	*>Label>Intro	*>Label>Intro	*>Label>Intro	*>Label>Intro	*>Label>Intro	*>Label>Intro
1I	F:maj	1r	.	1r	.	.	0.464	newline	synthesizer
=2	=2	=2	=2	=2	=2	=2	=2	=2	=2
1I	F:maj	1r	.	1r	.	.	2.775	.	synthesizer
=3	=3	=3	=3	=3	=3	=3	=3	=3	=3
1I	F:1	1r	.	1r	.	.	5.087	.	synthesizer
=4	=4	=4	=4	=4	=4	=4	=4	=4	=4
1I	F:1	2r	.	1r	.	.	7.398	.	synthesizer
.	.	4r	.	.	.	.	.	.	.
.	.	8.r	.	.	.	.	.	.	.
.	.	16F	I	.	.	.	.	.	.
=5	=5	=5	=5	=5	=5	=5	=5	=5	=5
*>Letter>B	*>Letter>B	*>Letter>B	*>Letter>B	*>Letter>B	*>Letter>B	*>Letter>B	*>Letter>B	*>Letter>B	*>Letter>B
*>Label>Verse	*>Label>Verse	*>Label>Verse	*>Label>Verse	*>Label>Verse	*>Label>Verse	*>Label>Verse	*>Label>Verse	*>Label>Verse	*>Label>Verse
1I	F:maj	8c	call	1r	.	.	9.709	newline	voice
.	.	8c	you	.	.	.	.	.	.
.	.	8r	.	.	.	.	.	.	.
.	.	16c	when	.	.	.	.	.	.
.	.	16c	I	.	.	.	.	.	.
.	.	8d	need	.	.	.	.	.	.
.	.	8d	you	.	.	.	.	.	.
.	.	8r	.	.	.	.	.	.	.
.	.	8d	my	.	.	.	.	.	.
=6	=6	=6	=6	=6	=6	=6	=6	=6	=6
.	.	8dq	_	.	.	.	.	.	.
1I	F:maj	4e	heart's	1r	.	.	12.014	.	voice
.	.	8f	on	.	.	.	.	.	.
.	.	[8f	fi	.	.	(A	.	.	.
.	.	8f]	_	.	.	.	.	.	.
.	.	16d	_	.	.	.	.	.	.
.	.	16c	_	.	.	.	.	.	.
.	.	4c	re.	.	.	a)	.	.	.
=7	=7	=7	=7	=7	=7	=7	=7	=7	=7
2I	F:maj	1r	.	1r	.	.	14.319	.	voice
2I	F:maj6	.	.	.	.	.	15.472	.	voice
=8	=8	=8	=8	=8	=8	=8	=8	=8	=8
2I7	F:maj7	2r	.	1r	.	.	16.625	.	voice
2I	F:maj	4.r	.	.	.	.	17.777	.	voice
.	.	8F	You	.	.	.	.	.	.
=9	=9	=9	=9	=9	=9	=9	=9	=9	=9
1I	F:maj	4c	come	1r	.	.	18.93	newline	voice
.	.	8c	to	.	.	.	.	.	.
.	.	8c	me,	.	.	.	.	.	.
.	.	4d	come	.	.	.	.	.	.
.	.	8d	to	.	.	.	.	.	.
.	.	8d	me,	.	.	.	.	.	.
=10	=10	=10	=10	=10	=10	=10	=10	=10	=10
1I	F:maj	8e	wi-	1r	.	.	21.242	.	voice
.	.	8e	-ld	.	.	.	.	.	.
.	.	8f	and	.	.	.	.	.	.
.	.	[8f	wi	.	.	(A	.	.	.
.	.	8f]	_	.	.	.	.	.	.
.	.	16d	_	.	.	.	.	.	.
.	.	16c	_	.	.	.	.	.	.
.	.	4c	ld.	.	.	a)	.	.	.
=11	=11	=11	=11	=11	=11	=11	=11	=11	=11
2I	F:maj	1r	.	1r	.	.	23.554	.	voice
2I	F:maj6	.	.	.	.	.	24.71	.	voice
=12	=12	=12	=12	=12	=12	=12	=12	=12	=12
2I7	F:maj7	2r	.	1r	.	.	25.866	.	voice
2I	F:maj	8f	Oh,	.	.	.	27.022	.	voice
.	.	8f	you	.	.	.	.	.	.
.	.	8f	come	.	.	.	.	.	.
.	.	8f	to	.	.	.	.	.	.
=13	=13	=13	=13	=13	=13	=13	=13	=13	=13
1vi7	D:min9	4f	me	1r	.	B	28.178	newline	voice
.	.	4r	.	.	.	.	.	.	.
.	.	2r	.	.	.	.	.	.	.
=14	=14	=14	=14	=14	=14	=14	=14	=14	=14
1vi7	D:min9	8r	.	1r	.	.	30.495	.	voice
.	.	8a	Give	.	.	.	.	.	.
.	.	8g	me	.	.	.	.	.	.
.	.	8g	ev-	.	.	.	.	.	.
.	.	8f	-'ry-	.	.	.	.	.	.
.	.	8f	-thing	.	.	B	.	.	.
.	.	8~A	_	.	.	.	.	.	.
.	.	[8B-	I	.	.	.	.	.	.
=15	=15	=15	=15	=15	=15	=15	=15	=15	=15
1IV	B-:maj	8B-]	_	1r	.	.	32.812	.	voice
.	.	[4.B-	need	.	.	B	.	.	.
.	.	8B-]	_	.	.	.	.	.	.
.	.	8r	.	.	.	.	.	.	.
.	.	4r	.	.	.	.	.	.	.
=16	=16	=16	=16	=16	=16	=16	=16	=16	=16
1IV	B-:maj(9)	2r	.	1r	.	.	35.129	.	voice
.	.	4r	.	.	.	.	.	.	.
.	.	16c	Give	.	.	.	.	.	.
.	.	16c	me	.	.	.	.	.	.
.	.	16c	a	.	.	.	.	.	.
.	.	[16c	life	.	.	.	.	.	.
=17	=17	=17	=17	=17	=17	=17	=17	=17	=17
*>Letter>B	*>Letter>B	*>Letter>B	*>Letter>B	*>Letter>B	*>Letter>B	*>Letter>B	*>Letter>B	*>Letter>B	*>Letter>B
*>Label>Verse	*>Label>Verse	*>Label>Verse	*>Label>Verse	*>Label>Verse	*>Label>Verse	*>Label>Verse	*>Label>Verse	*>Label>Verse	*>Label>Verse
1I	F:maj	8c]	_	1r	.	.	37.446	newline	voice
.	.	4c	time	.	.	.	.	.	.
.	.	16c	of	.	.	.	.	.	.
.	.	[16d	pro	.	.	.	.	.	.
.	.	16d]	_	.	.	.	.	.	.
.	.	16d	mi-	.	.	.	.	.	.
.	.	8d	-ses	.	.	.	.	.	.
.	.	8r	.	.	.	.	.	.	.
.	.	16d	and	.	.	.	.	.	.
.	.	16d	a	.	.	.	.	.	.
=18	=18	=18	=18	=18	=18	=18	=18	=18	=18
.	.	8dq	_	.	.	.	.	.	.
1I	F:maj	4e	world	1r	.	.	39.758	.	voice
.	.	8f	of	.	.	.	.	.	.
.	.	[8f	dreams	.	.	B	.	.	.
.	.	8f]	_	.	.	.	.	.	.
.	.	16d	_	.	.	.	.	.	.
.	.	[16c	_	.	.	.	.	.	.
.	.	8c]	_	.	.	.	.	.	.
.	.	8r	.	.	.	.	.	.	.
=19	=19	=19	=19	=19	=19	=19	=19	=19	=19
2I	F:maj	1r	.	1r	.	.	42.071	.	voice
2I	F:maj6	.	.	.	.	.	43.227	.	voice
=20	=20	=20	=20	=20	=20	=20	=20	=20	=20
2I7	F:maj7	2r	.	1r	.	.	44.384	.	voice
2I	F:maj	4r	.	.	.	.	45.54	.	voice
.	.	16c	Speak	.	.	.	.	.	.
.	.	16c	the	.	.	.	.	.	.
.	.	[8c	lan	.	.	.	.	.	.
=21	=21	=21	=21	=21	=21	=21	=21	=21	=21
1I	F:maj	8c]	_	1r	.	.	46.696	newline	voice
.	.	8c	guage	.	.	.	.	.	.
.	.	8c	of	.	.	.	.	.	.
.	.	8cq	_	.	.	.	.	.	.
.	.	[8d	love	.	.	.	.	.	.
.	.	6d]	_	.	.	.	.	.	.
.	.	6d	like	.	.	.	.	.	.
.	.	6d	you	.	.	.	.	.	.
=22	=22	=22	=22	=22	=22	=22	=22	=22	=22
1I	F:maj	6e	know	1r	.	.	48.989	.	voice
.	.	6e	what	.	.	.	.	.	.
.	.	8eq	_	.	.	.	.	.	.
.	.	8g	it	.	.	.	.	.	.
.	.	[24f	means	.	.	B	.	.	.
.	.	8.f]	_	.	.	.	.	.	.
.	.	16d	_	.	.	.	.	.	.
.	.	4c	_	.	.	.	.	.	.
=23	=23	=23	=23	=23	=23	=23	=23	=23	=23
2I	F:maj	1r	.	1r	.	.	51.282	.	voice
2I	F:maj6	.	.	.	.	.	52.428	.	voice
=24	=24	=24	=24	=24	=24	=24	=24	=24	=24
2I7	F:maj7	4r	.	1r	.	.	53.574	.	voice
.	.	8r	.	.	.	.	.	.	.
.	.	[8f	Mm,	.	.	.	.	.	.
2I	F:maj	8f]	_	.	.	.	54.721	.	voice
.	.	16f	and	.	.	.	.	.	.
.	.	16f	it	.	.	.	.	.	.
.	.	8f	can't	.	.	.	.	.	.
.	.	8f	be	.	.	.	.	.	.
=25	=25	=25	=25	=25	=25	=25	=25	=25	=25
1vi7	D:min9	16f	wrong	1r	.	C	55.867	newline	voice
.	.	16d	_	.	.	.	.	.	.
.	.	8r	.	.	.	.	.	.	.
.	.	4r	.	.	.	.	.	.	.
.	.	2r	.	.	.	.	.	.	.
=26	=26	=26	=26	=26	=26	=26	=26	=26	=26
1vi7	D:min9	8r	.	1r	.	.	58.188	.	voice
.	.	8a	Take	.	.	.	.	.	.
.	.	8g	my	.	.	.	.	.	.
.	.	8g	heart	.	.	.	.	.	.
.	.	8f	_	.	.	.	.	.	.
.	.	8f	and	.	.	.	.	.	.
.	.	8f	make	.	.	.	.	.	.
.	.	8f	it	.	.	.	.	.	.
=27	=27	=27	=27	=27	=27	=27	=27	=27	=27
1IV	B-:maj	8f	strong,	1r	.	C	60.51	.	voice
.	.	4B-	_	.	.	.	.	.	.
.	.	8B-	babe	.	.	.	.	.	.
.	.	2r	.	.	.	.	.	.	.
=28	=28	=28	=28	=28	=28	=28	=28	=28	=28
1V7	C:7	4r	.	1r	.	.	62.831	.	voice
.	.	8r	.	.	.	.	.	.	.
.	.	8c	you're	.	.	.	.	.	.
.	.	8b-	sim-	.	.	.	.	.	.
.	.	8b-	-ply	.	.	.	.	.	.
.	.	8b-	the	.	.	.	.	.	.
.	.	8gq	_	.	.	.	.	.	.
.	.	8a	best!	.	.	D	.	.	.
=29	=29	=29	=29	=29	=29	=29	=29	=29	=29
*>Letter>C	*>Letter>C	*>Letter>C	*>Letter>C	*>Letter>C	*>Letter>C	*>Letter>C	*>Letter>C	*>Letter>C	*>Letter>C
*>Label>Chorus	*>Label>Chorus	*>Label>Chorus	*>Label>Chorus	*>Label>Chorus	*>Label>Chorus	*>Label>Chorus	*>Label>Chorus	*>Label>Chorus	*>Label>Chorus
2.I	F:maj	1r	.	1r	.	.	65.152	newline	voice
4I	F:maj(9)	.	.	.	.	.	66.889	.	voice
=30	=30	=30	=30	=30	=30	=30	=30	=30	=30
2I	F:sus4	2r	.	1r	.	.	67.468	.	voice
2I	F:maj	8a	Bet-	.	.	.	68.626	.	voice
.	.	8a	-ter	.	.	.	.	.	.
.	.	4a	than	.	.	.	.	.	.
=31	=31	=31	=31	=31	=31	=31	=31	=31	=31
2.I	F:maj	4a	all	1r	.	.	69.784	.	voice
.	.	8f	the	.	.	.	.	.	.
.	.	8f	rest	.	.	D	.	.	.
.	.	2r	.	.	.	.	.	.	.
4I	F:maj(9)	.	.	.	.	.	71.521	.	voice
=32	=32	=32	=32	=32	=32	=32	=32	=32	=32
2I	F:sus4	2r	.	1r	.	.	72.1	.	voice
2I	F:maj	8a	Bet-	.	.	.	73.258	.	voice
.	.	8a	-ter	.	.	.	.	.	.
.	.	4a	than	.	.	.	.	.	.
=33	=33	=33	=33	=33	=33	=33	=33	=33	=33
2.vi7	D:min7	8a	a-	1r	.	.	74.416	newline	voice
.	.	4f	-ny-	.	.	.	.	.	.
.	.	8f	-one	.	.	.	.	.	.
.	.	2r	.	.	.	.	.	.	.
4vi7	D:min11	.	.	.	.	.	76.154	.	voice
=34	=34	=34	=34	=34	=34	=34	=34	=34	=34
2vi7b	B-:maj(9)/3	2r	.	1r	.	.	76.733	.	voice
2vi7	D:min7	16r	.	.	.	.	77.892	.	voice
.	.	16f	a-	.	.	.	.	.	.
.	.	8f	-ny-	.	.	.	.	.	.
.	.	8f	-one	.	.	.	.	.	.
.	.	8f	I've	.	.	.	.	.	.
=35	=35	=35	=35	=35	=35	=35	=35	=35	=35
1V	C:maj	8f	e	1r	.	.	79.05	.	voice
.	.	8c	_	.	.	.	.	.	.
.	.	8c	ver	.	.	.	.	.	.
.	.	8c	met	.	.	D	.	.	.
.	.	2r	.	.	.	.	.	.	.
=36	=36	=36	=36	=36	=36	=36	=36	=36	=36
1V	C:maj	4r	.	1r	.	.	81.368	.	voice
.	.	8r	.	.	.	.	.	.	.
.	.	8~g	I'm	.	.	.	.	.	.
.	.	8b-	stuck	.	.	.	.	.	.
.	.	[8b-	on	.	.	.	.	.	.
.	.	16b-]	_	.	.	.	.	.	.
.	.	8.b-	your	.	.	.	.	.	.
=37	=37	=37	=37	=37	=37	=37	=37	=37	=37
2.I	F:maj	8a	heart	1r	.	E	83.685	newline	voice
.	.	4f	_	.	.	.	.	.	.
.	.	8r	.	.	.	.	.	.	.
.	.	2r	.	.	.	.	.	.	.
4I	F:maj(9)	.	.	.	.	.	85.409	.	voice
=38	=38	=38	=38	=38	=38	=38	=38	=38	=38
2I	F:sus4	4r	.	2r	.	.	85.983	.	voice
.	.	8r	.	.	.	.	.	.	.
.	.	8f	I	.	.	.	.	.	.
2I	F:maj	8a	hang	8f	_	.	87.133	.	voice
.	.	8a	on	8f	_	.	.	.	.
.	.	8a	ev-	8f	_	.	.	.	.
.	.	8a	-'ry	8f	_	.	.	.	.
=39	=39	=39	=39	=39	=39	=39	=39	=39	=39
.	.	8gq	_	8dq	_	.	.	.	.
2.I	F:maj	8a-	word	8f	_	.	88.282	.	voice
.	.	8g	_	8d	_	.	.	.	.
.	.	8f	you	8c	_	.	.	.	.
.	.	8f	say	8c	_	.	.	.	.
.	.	2r	.	2r	.	.	.	.	.
4I	F:maj(9)	.	.	.	.	.	90.006	.	voice
=40	=40	=40	=40	=40	=40	=40	=40	=40	=40
2I	F:sus4	2r	.	1r	.	.	90.581	.	voice
2I	F:maj	8f	Tear	.	.	.	91.73	.	voice
.	.	8f	us	.	.	.	.	.	.
.	.	16f	a-	.	.	.	.	.	.
.	.	16fQ	_	.	.	.	.	.	.
.	.	[8.d	-part	.	.	E	.	.	.
=41	=41	=41	=41	=41	=41	=41	=41	=41	=41
2.vi7	D:min7	8d]	_	1r	.	.	92.88	newline	voice
.	.	16c	_	.	.	.	.	.	.
.	.	16A	_	.	.	.	.	.	.
.	.	16A	_	.	.	.	.	.	.
.	.	16G	_	.	.	.	.	.	.
.	.	8F	_	.	.	.	.	.	.
.	.	2r	.	.	.	.	.	.	.
4vi7	D:min11	.	.	.	.	.	94.608	.	voice
=42	=42	=42	=42	=42	=42	=42	=42	=42	=42
2vi7b	B-:maj(9)/3	2r	.	1r	.	.	95.184	.	voice
2vi7	D:min7	8f	Ba-	.	.	.	96.337	.	voice
.	.	8f	-by,	.	.	.	.	.	.
.	.	8f	I	.	.	.	.	.	.
.	.	8f	would	.	.	.	.	.	.
=43	=43	=43	=43	=43	=43	=43	=43	=43	=43
1V	C:maj	6d	ra-	1r	.	.	97.489	.	voice
.	.	6c	-ther	.	.	.	.	.	.
.	.	8cq	_	.	.	.	.	.	.
.	.	6d	be	.	.	.	.	.	.
.	.	8c	_	.	.	.	.	.	.
.	.	4.c	dead	.	.	.	.	.	.
=44	=44	=44	=44	=44	=44	=44	=44	=44	=44
1V	C:maj	2r	.	1r	.	.	99.794	.	voice
.	.	4r	.	.	.	.	.	.	.
.	.	16~A	In	.	.	.	.	.	.
.	.	16~B-	your	.	.	.	.	.	.
.	.	[8c	heart	.	.	E	.	.	.
=45	=45	=45	=45	=45	=45	=45	=45	=45	=45
*>Letter>B	*>Letter>B	*>Letter>B	*>Letter>B	*>Letter>B	*>Letter>B	*>Letter>B	*>Letter>B	*>Letter>B	*>Letter>B
*>Label>Verse	*>Label>Verse	*>Label>Verse	*>Label>Verse	*>Label>Verse	*>Label>Verse	*>Label>Verse	*>Label>Verse	*>Label>Verse	*>Label>Verse
1I	F:maj	8.c]	_	1r	.	.	102.098	newline	voice
.	.	16c	I	.	.	.	.	.	.
.	.	16c	see	.	.	.	.	.	.
.	.	16c	the	.	.	.	.	.	.
.	.	[8d	start	.	.	E	.	.	.
.	.	8.d]	_	.	.	.	.	.	.
.	.	16d	of	.	.	.	.	.	.
.	.	16d	ev-	.	.	.	.	.	.
.	.	16d	-'ry	.	.	.	.	.	.
.	.	16dQ	_	.	.	.	.	.	.
.	.	[8e	night	.	.	.	.	.	.
=46	=46	=46	=46	=46	=46	=46	=46	=46	=46
1I	F:maj	8.e]	_	1r	.	.	104.42	.	voice
.	.	16e	and	.	.	.	.	.	.
.	.	16e	ev-	.	.	.	.	.	.
.	.	16f	-'ry	.	.	.	.	.	.
.	.	[8f	day	.	.	F	.	.	.
.	.	8f]	_	.	.	.	.	.	.
.	.	16d	_	.	.	.	.	.	.
.	.	16c	_	.	.	.	.	.	.
.	.	4c	_	.	.	.	.	.	.
=47	=47	=47	=47	=47	=47	=47	=47	=47	=47
2I	F:maj	1r	.	1r	.	.	106.742	.	voice
2I	F:maj6	.	.	.	.	.	107.903	.	voice
=48	=48	=48	=48	=48	=48	=48	=48	=48	=48
2I7	F:maj7	2r	.	1r	.	.	109.064	.	voice
2I	F:maj	4r	.	.	.	.	110.225	.	voice
.	.	16c	In	.	.	.	.	.	.
.	.	16c	your	.	.	.	.	.	.
.	.	8c	eyes	.	.	.	.	.	.
=49	=49	=49	=49	=49	=49	=49	=49	=49	=49
1I	F:maj	4A	_	1r	.	.	111.386	newline	voice
.	.	16r	.	.	.	.	.	.	.
.	.	16A	I	.	.	.	.	.	.
.	.	8c	get	.	.	.	.	.	.
.	.	4e	lost	.	.	G	.	.	.
.	.	16r	.	.	.	.	.	.	.
.	.	16~A	I	.	.	.	.	.	.
.	.	8d	get	.	.	.	.	.	.
=50	=50	=50	=50	=50	=50	=50	=50	=50	=50
1I	F:maj	4e	washed	1r	.	G	113.685	.	voice
.	.	8f	a-	.	.	.	.	.	.
.	.	[8f	-way	.	.	F	.	.	.
.	.	8f]	_	.	.	.	.	.	.
.	.	16d	_	.	.	.	.	.	.
.	.	16c	_	.	.	.	.	.	.
.	.	4c	_	.	.	.	.	.	.
=51	=51	=51	=51	=51	=51	=51	=51	=51	=51
2I	F:maj	1r	.	1r	.	.	115.984	.	voice
2I	F:maj6	.	.	.	.	.	117.133	.	voice
=52	=52	=52	=52	=52	=52	=52	=52	=52	=52
2I7	F:maj7	2r	.	1r	.	.	118.282	.	voice
2I	F:maj	6r	.	.	.	.	119.432	.	voice
.	.	6a	Just	.	.	.	.	.	.
.	.	8gq	_	.	.	.	.	.	.
.	.	6a	as	.	.	.	.	.	.
=53	=53	=53	=53	=53	=53	=53	=53	=53	=53
1vi7	D:min9	12a	long	1r	.	.	120.581	newline	voice
.	.	12g	_	.	.	.	.	.	.
.	.	6g	as	.	.	.	.	.	.
.	.	6g	I'm	.	.	.	.	.	.
.	.	12g	here	.	.	.	.	.	.
.	.	12f	_	.	.	.	.	.	.
.	.	6f	in	.	.	.	.	.	.
.	.	6f	your	.	.	.	.	.	.
=54	=54	=54	=54	=54	=54	=54	=54	=54	=54
1vi7	D:min9	6f	arms	1r	.	E	122.893	.	voice
.	.	6f	I	.	.	.	.	.	.
.	.	6f	could	.	.	.	.	.	.
.	.	6f	be	.	.	.	.	.	.
.	.	6f	in	.	.	.	.	.	.
.	.	[6f	no	.	.	.	.	.	.
=55	=55	=55	=55	=55	=55	=55	=55	=55	=55
1IV	B-:maj	8f]	_	1r	.	.	125.205	.	voice
.	.	8e-	bet-	.	.	.	.	.	.
.	.	8d	-ter	.	.	.	.	.	.
.	.	[8d	place	.	.	F	.	.	.
.	.	8d]	_	.	.	.	.	.	.
.	.	8r	.	.	.	.	.	.	.
.	.	4r	.	.	.	.	.	.	.
=56	=56	=56	=56	=56	=56	=56	=56	=56	=56
1V7	C:7	4r	.	2r	.	.	127.517	.	voice
.	.	8r	.	.	.	.	.	.	.
.	.	8c	you're	.	.	.	.	.	.
.	.	8b-	sim-	8dd	sim-	.	.	.	.
.	.	8b-	-ply	8dd	-ply	.	.	.	.
.	.	8b-	the	8dd	the	.	.	.	.
.	.	8gq	_	.	.	.	.	.	.
.	.	8a	best!	8cc	best!	D	.	.	.
=57	=57	=57	=57	=57	=57	=57	=57	=57	=57
*>Letter>C	*>Letter>C	*>Letter>C	*>Letter>C	*>Letter>C	*>Letter>C	*>Letter>C	*>Letter>C	*>Letter>C	*>Letter>C
*>Label>Chorus	*>Label>Chorus	*>Label>Chorus	*>Label>Chorus	*>Label>Chorus	*>Label>Chorus	*>Label>Chorus	*>Label>Chorus	*>Label>Chorus	*>Label>Chorus
2.I	F:maj	1r	.	1r	.	.	129.829	newline	voice
4I	F:maj(9)	.	.	.	.	.	131.574	.	voice
=58	=58	=58	=58	=58	=58	=58	=58	=58	=58
2I	F:sus4	2r	.	2r	.	.	132.156	.	voice
2I	F:maj	8a	Bet-	8cc	Bet-	.	133.32	.	voice
.	.	8a	-ter	8cc	-ter	.	.	.	.
.	.	4a	than	4cc	than	.	.	.	.
=59	=59	=59	=59	=59	=59	=59	=59	=59	=59
2.I	F:maj	4a	all	4cc	all	.	134.483	.	voice
.	.	8f	the	8a	the	.	.	.	.
.	.	8f	rest	8a	rest	D	.	.	.
.	.	2r	.	2r	.	.	.	.	.
4I	F:maj(9)	.	.	.	.	.	136.228	.	voice
=60	=60	=60	=60	=60	=60	=60	=60	=60	=60
2I	F:sus4	2r	.	2r	.	.	136.81	.	voice
2I	F:maj	8a	Bet-	8cc	Bet-	.	137.973	.	voice
.	.	8a	-ter	8cc	-ter	.	.	.	.
.	.	4a	than	4cc	than	.	.	.	.
=61	=61	=61	=61	=61	=61	=61	=61	=61	=61
2.vi7	D:min7	8a	a-	4cc	a-	.	139.137	newline	voice
.	.	8f	-ny-	.	.	.	.	.	.
.	.	8f	_	8a	_	.	.	.	.
.	.	8f	-one	8a	-one	.	.	.	.
.	.	2r	.	2r	.	.	.	.	.
4vi7	D:min11	.	.	.	.	.	140.869	.	voice
=62	=62	=62	=62	=62	=62	=62	=62	=62	=62
2vi7b	B-:maj(9)/3	2r	.	2r	.	.	141.446	.	voice
2vi7	D:min7	8f	a-	8a	a-	.	142.601	.	voice
.	.	8f	-ny-	8a	-ny-	.	.	.	.
.	.	8f	-one	8a	-one	.	.	.	.
.	.	8f	I've	8a	I've	.	.	.	.
=63	=63	=63	=63	=63	=63	=63	=63	=63	=63
1V	C:maj	8f	e	8a	e	.	143.756	.	voice
.	.	8c	_	8g	_	.	.	.	.
.	.	8c	ver	8g	ver	.	.	.	.
.	.	8c	met	8g	met	D	.	.	.
.	.	2r	.	2r	.	.	.	.	.
=64	=64	=64	=64	=64	=64	=64	=64	=64	=64
1V	C:maj	4r	.	2r	.	.	146.066	.	voice
.	.	16r	.	.	.	.	.	.	.
.	.	16.cc	_	.	.	.	.	.	.
.	.	16.~b-	_	.	.	.	.	.	.
.	.	8b-	stuck	8dd	stuck	.	.	.	.
.	.	[8b-	on	[8dd	on	.	.	.	.
.	.	16b-]	_	16dd]	_	.	.	.	.
.	.	8.b-	your	8.dd	your	.	.	.	.
=65	=65	=65	=65	=65	=65	=65	=65	=65	=65
2.I	F:maj	8a	heart	8cc	heart	E	148.376	newline	voice
.	.	4f	_	4a	_	.	.	.	.
.	.	8r	.	8r	.	.	.	.	.
.	.	2r	.	2r	.	.	.	.	.
4I	F:maj(9)	.	.	.	.	.	150.1	.	voice
=66	=66	=66	=66	=66	=66	=66	=66	=66	=66
2I	F:sus4	4r	.	2r	.	.	150.674	.	voice
.	.	8r	.	.	.	.	.	.	.
.	.	8f	I	.	.	.	.	.	.
2I	F:maj	8a	hang	8cc	hang	.	151.824	.	voice
.	.	8a	on	8cc	on	.	.	.	.
.	.	8a	ev-	8cc	ev-	.	.	.	.
.	.	8a	-'ry	8cc	-'ry	.	.	.	.
=67	=67	=67	=67	=67	=67	=67	=67	=67	=67
.	.	8gq	_	8b-q	_	.	.	.	.
2.I	F:maj	8a-	word	8cc	word	.	152.973	.	voice
.	.	8g	_	8b-	_	.	.	.	.
.	.	8f	you	8a	you	.	.	.	.
.	.	8f	say	8a	say	F	.	.	.
.	.	2r	.	2r	.	.	.	.	.
4I	F:maj(9)	.	.	.	.	.	154.697	.	voice
=68	=68	=68	=68	=68	=68	=68	=68	=68	=68
2I	F:sus4	4r	.	1r	.	.	155.272	.	voice
.	.	8gq	_	.	.	.	.	.	.
.	.	4a	Oh,	.	.	.	.	.	.
2I	F:maj	8a	tear	.	.	.	156.421	.	voice
.	.	8g	us	.	.	.	.	.	.
.	.	8f	a-	.	.	.	.	.	.
.	.	[8f	-part,	.	.	E	.	.	.
=69	=69	=69	=69	=69	=69	=69	=69	=69	=69
2.vi7	D:min7	8f]	_	1r	.	.	157.571	newline	voice
.	.	[8d	no,	.	.	.	.	.	.
.	.	16d]	_	.	.	.	.	.	.
.	.	8.A	no,	.	.	.	.	.	.
.	.	4G	no	.	.	.	.	.	.
4vi7	D:min11	4r	.	.	.	.	159.304	.	voice
=70	=70	=70	=70	=70	=70	=70	=70	=70	=70
2vi7b	B-:maj(9)/3	2r	.	1r	.	.	159.882	.	voice
.	.	16cQ	_	.	.	.	.	.	.
.	.	16dQ	_	.	.	.	.	.	.
2vi7	D:min7	8e	Ba-	.	.	.	161.037	.	voice
.	.	8f	-by,	.	.	.	.	.	.
.	.	8f	I	.	.	.	.	.	.
.	.	8f	would	.	.	.	.	.	.
=71	=71	=71	=71	=71	=71	=71	=71	=71	=71
1V	C:maj	6d	ra-	1r	.	.	162.193	.	voice
.	.	6c	-ther	.	.	.	.	.	.
.	.	8cq	_	.	.	.	.	.	.
.	.	6d	be	.	.	.	.	.	.
.	.	8c	_	.	.	.	.	.	.
.	.	4.c	dead	.	.	.	.	.	.
=72	=72	=72	=72	=72	=72	=72	=72	=72	=72
1V	C:maj	1r	.	1r	.	.	164.504	.	voice
=73	=73	=73	=73	=73	=73	=73	=73	=73	=73
*>Letter>D	*>Letter>D	*>Letter>D	*>Letter>D	*>Letter>D	*>Letter>D	*>Letter>D	*>Letter>D	*>Letter>D	*>Letter>D
*>Label>Bridge	*>Label>Bridge	*>Label>Bridge	*>Label>Bridge	*>Label>Bridge	*>Label>Bridge	*>Label>Bridge	*>Label>Bridge	*>Label>Bridge	*>Label>Bridge
1IV	B-:maj(9)	8r	.	1r	.	.	166.815	newline	voice
.	.	8b-	Each	.	.	.	.	.	.
.	.	8b-	time	.	.	.	.	.	.
.	.	8b-	you	.	.	.	.	.	.
.	.	8b-	leave	.	.	.	.	.	.
.	.	8b-	me	.	.	.	.	.	.
.	.	8b-	I	.	.	.	.	.	.
.	.	8b-	start	.	.	E	.	.	.
=74	=74	=74	=74	=74	=74	=74	=74	=74	=74
1IV	B-:maj(9)	8b-	lo-	1r	.	.	169.123	.	voice
.	.	8a	-sing	.	.	.	.	.	.
.	.	8g	con-	.	.	.	.	.	.
.	.	8b-	-trol	.	.	H	.	.	.
.	.	16a	_	.	.	.	.	.	.
.	.	8.g	_	.	.	.	.	.	.
.	.	8r	.	.	.	.	.	.	.
.	.	8~B-	you're	.	.	.	.	.	.
=75	=75	=75	=75	=75	=75	=75	=75	=75	=75
1vi7	D:min7	8a	wal-	1r	.	.	171.431	.	voice
.	.	8a	-king	.	.	.	.	.	.
.	.	8a	a-	.	.	.	.	.	.
.	.	8g#q	_	.	.	.	.	.	.
.	.	[8a	-way	.	.	.	.	.	.
.	.	8a]	_	.	.	.	.	.	.
.	.	8g	with	.	.	.	.	.	.
.	.	8f	my	.	.	.	.	.	.
.	.	8g#q	_	.	.	.	.	.	.
.	.	[8a	heart	.	.	E	.	.	.
=76	=76	=76	=76	=76	=76	=76	=76	=76	=76
1vi7	D:min7	8a]	_	1r	.	.	173.739	.	voice
.	.	8g	and	.	.	.	.	.	.
.	.	8f	my	.	.	.	.	.	.
.	.	8g#q	_	.	.	.	.	.	.
.	.	[8a	soul	.	.	H	.	.	.
.	.	4a]	_	.	.	.	.	.	.
.	.	4r	.	.	.	.	.	.	.
=77	=77	=77	=77	=77	=77	=77	=77	=77	=77
1IV	B-:maj	4r	.	1r	.	.	176.046	newline	voice
.	.	8b-	I	.	.	.	.	.	.
.	.	8b-	can	.	.	.	.	.	.
.	.	8b-	feel	.	.	.	.	.	.
.	.	8b-	you	.	.	.	.	.	.
.	.	8b-	e-	.	.	.	.	.	.
.	.	8b-	-ven	.	.	.	.	.	.
=78	=78	=78	=78	=78	=78	=78	=78	=78	=78
1IV	B-:maj	8b-	when	1r	.	.	178.371	.	voice
.	.	8a	I'm	.	.	.	.	.	.
.	.	8g	a-	.	.	.	.	.	.
.	.	8b-	-lone	.	.	H	.	.	.
.	.	16a	_	.	.	.	.	.	.
.	.	8.g	_	.	.	.	.	.	.
.	.	4r	.	.	.	.	.	.	.
=79	=79	=79	=79	=79	=79	=79	=79	=79	=79
1V	C:maj	8r	.	1r	.	.	180.696	.	voice
.	.	[8cc	Oh,	.	.	.	.	.	.
.	.	16cc]	_	.	.	.	.	.	.
.	.	[8.cc	ba	.	.	.	.	.	.
.	.	8cc]	_	.	.	.	.	.	.
.	.	8a	_	.	.	.	.	.	.
.	.	8a	by	.	.	.	.	.	.
.	.	8r	.	.	.	.	.	.	.
=80	=80	=80	=80	=80	=80	=80	=80	=80	=80
2V	C:maj	8r	.	1r	.	.	183.02	.	voice
.	.	16dd	Don't	.	.	.	.	.	.
.	.	16cc	_	.	.	.	.	.	.
.	.	8dd	let	.	.	.	.	.	.
.	.	[8dd	go	.	.	H	.	.	.
2VI	D:maj	8dd]	_	.	.	.	184.183	.	voice
.	.	16cc	_	.	.	.	.	.	.
.	.	16a	_	.	.	.	.	.	.
.	.	4r	.	.	.	.	.	.	.
=81	=81	=81	=81	=81	=81	=81	=81	=81	=81
*>Letter>C2	*>Letter>C2	*>Letter>C2	*>Letter>C2	*>Letter>C2	*>Letter>C2	*>Letter>C2	*>Letter>C2	*>Letter>C2	*>Letter>C2
*>Label>Solo	*>Label>Solo	*>Label>Solo	*>Label>Solo	*>Label>Solo	*>Label>Solo	*>Label>Solo	*>Label>Solo	*>Label>Solo	*>Label>Solo
*G:	*G:	*G:	*	*G:	*	*	*G:	*G:	*G:
2.I	G:maj	1r	.	1r	.	.	185.345	newline	saxophone
4I	G:maj(9)	.	.	.	.	.	187.072	.	saxophone
=82	=82	=82	=82	=82	=82	=82	=82	=82	=82
2I	G:sus4	1r	.	1r	.	.	187.648	.	saxophone
2I	G:maj	.	.	.	.	.	188.8	.	saxophone
=83	=83	=83	=83	=83	=83	=83	=83	=83	=83
2.I	G:maj	1r	.	1r	.	.	189.951	.	saxophone
4I	G:maj(9)	.	.	.	.	.	191.678	.	saxophone
=84	=84	=84	=84	=84	=84	=84	=84	=84	=84
2I	G:sus4	1r	.	1r	.	.	192.254	.	saxophone
2I	G:maj	.	.	.	.	.	193.406	.	saxophone
=85	=85	=85	=85	=85	=85	=85	=85	=85	=85
2.vi7	E:min7	1r	.	1r	.	.	194.557	newline	saxophone
4vi7	E:min11	.	.	.	.	.	196.286	.	saxophone
=86	=86	=86	=86	=86	=86	=86	=86	=86	=86
2IVb	C:maj(9)/3	1r	.	1r	.	.	196.863	.	saxophone
2vi7	E:min7	.	.	.	.	.	198.015	.	saxophone
=87	=87	=87	=87	=87	=87	=87	=87	=87	=87
1V	D:maj	1r	.	1r	.	.	199.168	.	saxophone
=88	=88	=88	=88	=88	=88	=88	=88	=88	=88
*	*	*clefG2	*	*	*	*	*	*	*
1V	D:maj	8r	.	1r	.	.	201.473	.	saxophone
.	.	4.dd	_	.	.	.	.	.	.
.	.	8cc	sim-	.	.	.	.	.	.
.	.	8cc	-ply	.	.	.	.	.	.
.	.	8cc	the	.	.	.	.	.	.
.	.	8b	best!	.	.	D	.	.	.
=89	=89	=89	=89	=89	=89	=89	=89	=89	=89
*>Letter>C	*>Letter>C	*>Letter>C	*>Letter>C	*>Letter>C	*>Letter>C	*>Letter>C	*>Letter>C	*>Letter>C	*>Letter>C
*>Label>Chorus	*>Label>Chorus	*>Label>Chorus	*>Label>Chorus	*>Label>Chorus	*>Label>Chorus	*>Label>Chorus	*>Label>Chorus	*>Label>Chorus	*>Label>Chorus
2.I	G:maj	8r	.	1r	.	.	203.779	newline	voice
.	.	8bb-	_	.	.	.	.	.	.
.	.	4r	.	.	.	.	.	.	.
.	.	2r	.	.	.	.	.	.	.
4I	G:maj(9)	.	.	.	.	.	205.516	.	voice
=90	=90	=90	=90	=90	=90	=90	=90	=90	=90
2I	G:sus4	2r	.	2r	.	.	206.096	.	voice
2I	G:maj	8b	Bet-	8dd	Bet-	.	207.254	.	voice
.	.	8b	-ter	8dd	-ter	.	.	.	.
.	.	4b	than	4dd	than	.	.	.	.
=91	=91	=91	=91	=91	=91	=91	=91	=91	=91
2.I	G:maj	8b	all	8dd	all	.	208.413	.	voice
.	.	8g	_	8b	_	.	.	.	.
.	.	8g	the	8b	the	.	.	.	.
.	.	8g	rest	8b	rest	D	.	.	.
.	.	2r	.	2r	.	.	.	.	.
4I	G:maj(9)	.	.	.	.	.	210.15	.	voice
=92	=92	=92	=92	=92	=92	=92	=92	=92	=92
2I	G:sus4	2r	.	2r	.	.	210.73	.	voice
2I	G:maj	8b	Bet-	8dd	Bet-	.	211.888	.	voice
.	.	8b	-ter	8dd	-ter	.	.	.	.
.	.	4b	than	4dd	than	.	.	.	.
=93	=93	=93	=93	=93	=93	=93	=93	=93	=93
2.vi7	E:min7	8b	a-	4dd	a-	.	213.047	newline	voice
.	.	8g	-ny-	.	.	.	.	.	.
.	.	8g	_	8b	_	.	.	.	.
.	.	8g	-one	8b	-one	.	.	.	.
.	.	2r	.	2r	.	.	.	.	.
4vi7	E:min11	.	.	.	.	.	214.774	.	voice
=94	=94	=94	=94	=94	=94	=94	=94	=94	=94
2vi7b	C:maj(9)/3	2r	.	2r	.	.	215.349	.	voice
2vi7	E:min7	8g	_	8b	_	.	216.501	.	voice
.	.	8g	ny-	8b	ny-	.	.	.	.
.	.	8g	-one	8b	-one	.	.	.	.
.	.	8g	I've	8b	I've	.	.	.	.
=95	=95	=95	=95	=95	=95	=95	=95	=95	=95
1V	D:maj	8g	e	8b	e	.	217.652	.	voice
.	.	8d	_	8a	_	.	.	.	.
.	.	8d	ver	8a	ver	.	.	.	.
.	.	8d	met	8a	met	D	.	.	.
.	.	2r	.	2r	.	.	.	.	.
=96	=96	=96	=96	=96	=96	=96	=96	=96	=96
1V	D:maj	4r	.	2r	.	.	219.955	.	voice
.	.	16r	.	.	.	.	.	.	.
.	.	16.dd	Ooh,	.	.	.	.	.	.
.	.	16.~cc	I'm	.	.	.	.	.	.
.	.	8cc	stuck	8ee	stuck	.	.	.	.
.	.	[8cc	on	[8ee	on	.	.	.	.
.	.	16cc]	_	16ee]	_	.	.	.	.
.	.	8.cc	your	8.ee	your	.	.	.	.
=97	=97	=97	=97	=97	=97	=97	=97	=97	=97
2.I	G:maj	8b	heart	8dd	heart	E	222.257	newline	voice
.	.	4g	_	4b	_	.	.	.	.
.	.	8r	.	8r	.	.	.	.	.
.	.	2r	.	2r	.	.	.	.	.
4I	G:maj(9)	.	.	.	.	.	223.983	.	voice
=98	=98	=98	=98	=98	=98	=98	=98	=98	=98
2I	G:sus4	4r	.	2r	.	.	224.559	.	voice
.	.	8r	.	.	.	.	.	.	.
.	.	8g	I	.	.	.	.	.	.
2I	G:maj	8b	hang	8dd	hang	.	225.71	.	voice
.	.	8b	on	8dd	on	.	.	.	.
.	.	8b	ev-	8dd	ev-	.	.	.	.
.	.	8b	-'ry	8dd	-'ry	.	.	.	.
=99	=99	=99	=99	=99	=99	=99	=99	=99	=99
.	.	8aq	_	8ccq	_	.	.	.	.
2.I	G:maj	8b-	word	8dd	word	.	226.861	.	voice
.	.	8a	_	8cc	_	.	.	.	.
.	.	8g	you	8b	you	.	.	.	.
.	.	8g	say	8b	say	F	.	.	.
.	.	2r	.	2r	.	.	.	.	.
4I	G:maj(9)	.	.	.	.	.	228.587	.	voice
=100	=100	=100	=100	=100	=100	=100	=100	=100	=100
2I	G:sus4	4r	.	1r	.	.	229.162	.	voice
.	.	8aq	_	.	.	.	.	.	.
.	.	4b	Oh,	.	.	.	.	.	.
2I	G:maj	8b	tear	.	.	.	230.313	.	voice
.	.	8a	us	.	.	.	.	.	.
.	.	8g	a-	.	.	.	.	.	.
.	.	8g	-part	.	.	E	.	.	.
=101	=101	=101	=101	=101	=101	=101	=101	=101	=101
2.vi7	E:min7	8e	_	1r	.	.	231.464	newline	voice
.	.	8r	.	.	.	.	.	.	.
.	.	16r	.	.	.	.	.	.	.
.	.	16e	No,	.	.	.	.	.	.
.	.	[8B	_	.	.	.	.	.	.
.	.	16B]	_	.	.	.	.	.	.
.	.	8.A	no	.	.	.	.	.	.
4vi7	E:min11	4r	.	.	.	.	233.198	.	voice
=102	=102	=102	=102	=102	=102	=102	=102	=102	=102
*	*	*clefC3	*	*	*	*	*	*	*
2vi7b	C:maj(9)/3	2r	.	1r	.	.	233.776	.	voice
2vi7	E:min7	8g	Ba-	.	.	.	234.932	.	voice
.	.	8g	-by,	.	.	.	.	.	.
.	.	8g	I	.	.	.	.	.	.
.	.	8g	would	.	.	.	.	.	.
=103	=103	=103	=103	=103	=103	=103	=103	=103	=103
1V	D:maj	6e	ra-	1r	.	.	236.088	.	voice
.	.	6d	-ther	.	.	.	.	.	.
.	.	8dq	_	.	.	.	.	.	.
.	.	6e	be	.	.	.	.	.	.
.	.	8d	_	.	.	.	.	.	.
.	.	4.d	dead	.	.	.	.	.	.
=104	=104	=104	=104	=104	=104	=104	=104	=104	=104
1V	D:maj	8r	.	1r	.	.	238.4	.	voice
.	.	4.dd	Oh,	.	.	.	.	.	.
.	.	8cc	_	.	.	.	.	.	.
.	.	8cc	you're	.	.	.	.	.	.
.	.	8cc	the	.	.	.	.	.	.
.	.	8b	best!	.	.	D	.	.	.
=105	=105	=105	=105	=105	=105	=105	=105	=105	=105
1I	G:maj(9)	1r	.	1r	.	.	240.712	.	synthesizer
1r;	N	r;	.	r;	.	.	327.007	.	r
1r;	N	r;	.	r;	.	.	329.3	.	r
*-	*-	*-	*-	*-	*-	*-	*-	*-	*-
!!!BillboardChartDate: 1989/11/04
!!!BillboardPeak: 15
!!!BillboardWeeksOnChart: 14
!!!COC: Tina Turner
!!!ENC: Nathaniel Condit-Schultz
!!!EST: Awating manual error checking and editing.
!!!OTL: The Best
!!!RDF**harte: Chris Harte's syntax, used by MIREX
!!!RDF**harmony: **recip + pitch class of root + harmonic quality
!!!RDF**leadinstrument: original McGill primary instrumentation annotation
!!!RDF**phrase: newline = linebreak in original McGill transcription
!!!RDF**timestamp: McGill audio timestamp in seconds
!!!RDT: 2017/01/12/
!!!SampleActualRank: 15
!!!SampleID#: 0348
!!!SampleTargetRank: 14
!!!MBID: c8ac6945-bd95-4ddc-b7f7-bc2237db0ef7
